assets/images/script/l-1-beg.svg

<svg fill="none" height="229" viewBox="0 0 259 229" width="259" xmlns="http://www.w3.org/2000/svg"><path d="m73.4714 140.114c-1.8484 0-6.0367.694-3.7425-2.317 11.7392-15.407 27.3979-27.174 43.9301-36.89 11.527-6.7746 35.672-24.1162 50.525-19.426 9.914 3.1309-11.444 24.102-13.723 26.465-1.882 1.952-23.011 21.83-17.109 24.148 13.684 5.376 29.367 4.153 42.772 11.644 18.003 10.061 23.154 16.234 16.614 34.604-7.895 22.175-42.277 35.69-46.643 37.643-24.329 10.878-49.0783 12.454-74.7622 5.346-28.7029-7.943-60.6095-31.414-67.0093-62.465-8.42828-40.892 25.5879-70.935 55.5144-93.0681 37.5947-27.8044 87.9931-69.39045 135.7121-62.32636 27.471 4.06677 56.131 19.66596 59.791 49.63326 3.182 26.0497-7.87 62.6482-28.425 78.9502-21.916 13.707-36.838-8.41-28.238-24.98 7.053-13.5893 18.238-19.8319 36.416-19.8319" stroke="#000" stroke-linecap="round" stroke-width="5"/></svg>

<svg width="259" height="229" viewBox="0 0 259 229" fill="none" xmlns="http://www.w3.org/2000/svg">
<path d="M73.4714 140.114C71.623 140.114 67.4347 140.808 69.7289 137.797C81.4681 122.39 97.1268 110.623 113.659 100.907C125.186 94.1324 149.331 76.7908 164.184 81.481C174.098 84.6119 152.74 105.583 150.461 107.946C148.579 109.898 127.45 129.776 133.352 132.094C147.036 137.47 162.719 136.247 176.124 143.738C194.127 153.799 199.278 159.972 192.738 178.342C184.843 200.517 150.461 214.032 146.095 215.985C121.766 226.863 97.0167 228.439 71.3328 221.331C42.6299 213.388 10.7233 189.917 4.3235 158.866C-4.10478 117.974 29.9114 87.931 59.8379 65.7979C97.4326 37.9935 147.831 -3.59255 195.55 3.47154C223.021 7.53831 251.681 23.1375 255.341 53.1048C258.523 79.1545 247.471 115.753 226.916 132.055C205 145.762 190.078 123.645 198.678 107.075C205.731 93.4857 216.916 87.2431 235.094 87.2431" stroke="black" stroke-width="5" stroke-linecap="round"/>
</svg>
